X: 2201
T: MISS GIBSON
Q: "Reel."
R: Reel.
%R: reel
B: James Kerr "Merry Melodies" v.2 p.23 #201
Z: 2016 John Chambers <jc:trillian.mit.edu>
M: C
L: 1/8
K: Bb
F |\
B2(bg) fdcB | AFcF dFcF |\
B2(bg) fdcB | FBAc dBB ::\
d |\
BGFE DEFD | ECC=B cGGA |\
BGFE DEFD | B,BAc dBB :|
